src/asset/img/icon/item_category/floor.svg

<svg xmlns:xlink="http://www.w3.org/1999/xlink" height="19.4" width="23.05" xmlns="http://www.w3.org/2000/svg"><use height="75" transform="translate(.018 .003) scale(.2589)" width="89" xlink:href="#a"/><defs><use height="75" width="89" xlink:href="#b" id="a"/><g id="b" fill-rule="evenodd"><path d="m-17.85 49.1-.25.9-.45-.25.7-.65" fill="#9cb7d2" transform="translate(21.75 -6)"/><path d="m-18.1 50-.45 1.6v-1.85l.45.25" fill="#819cb7" transform="translate(21.75 -6)"/><path d="m-16.95 48.2-.6-.3-.3 1.2-.7.65v6.4L24.85 78l40.2-42.55.15-7.1-.6.65L23 9.35-16.95 48.2m84.2-10.05L25.7 81l-43.4-21.35-.35-1-3.7-4.9.85-5.35L23.15 6l44.1 20.85v11.3" fill="#3f5a75" fill-opacity=".922" transform="translate(21.75 -6)"/><path d="m-18.55 51.6 42.2 20.7.3-.45.9 6.15-43.4-21.85V51.6" fill="#3f5a75" fill-opacity=".561" transform="translate(21.75 -6)"/><path d="m23.95 71.85.9-1.4-.15-.05L64.6 29l.6-.65-.15 7.1L24.85 78l-.9-6.15" fill="#3f5a75" fill-opacity=".753" transform="translate(21.75 -6)"/><path d="m54.35 24.75 2.3 1.1-39.6 40.45 7.65 4.1.15.05-.9 1.4-.3.45-42.2-20.7.45-1.6.25-.9.3-1.2.6.3 6.9 3.7L29.7 13.25l6.4 2.85-.5.55L-2.75 55.8l7.9 4.2 4.45 2.35L50.4 22.8l3.95 1.95" fill="#3f5a75" fill-opacity=".082" transform="translate(21.75 -6)"/><path d="m5.15 60-7.9-4.2L35.6 16.65 44 20.3 5.15 60" fill="#3f5a75" fill-opacity=".333" transform="translate(21.75 -6)"/><path d="M54.35 24.75 50.4 22.8 9.6 62.35 5.15 60 44 20.3l-8.4-3.65.5-.55-6.4-2.85-39.75 38.65-6.9-3.7L23 9.35 64.6 29l-10-4.5-.25.25" fill="#3f5a75" fill-opacity=".212" transform="translate(21.75 -6)"/><path d="m24.7 70.4-7.65-4.1 39.6-40.45-2.3-1.1.25-.25 10 4.5-39.9 41.4" fill="#3f5a75" fill-opacity=".522" transform="translate(21.75 -6)"/></g></defs></svg>

<?xml version="1.0" encoding="UTF-8" standalone="no"?>
<svg xmlns:xlink="http://www.w3.org/1999/xlink" height="19.4px" width="23.05px" xmlns="http://www.w3.org/2000/svg">
  <g transform="matrix(1.0, 0.0, 0.0, 1.0, -1.0, -2.8)">
    <use height="75.0" transform="matrix(0.2589, 0.0, 0.0, 0.2589, 1.0184, 2.8031)" width="89.0" xlink:href="#sprite0"/>
  </g>
  <defs>
    <g id="sprite0" transform="matrix(1.0, 0.0, 0.0, 1.0, 21.75, -6.0)">
      <use height="75.0" transform="matrix(1.0, 0.0, 0.0, 1.0, -21.75, 6.0)" width="89.0" xlink:href="#shape0"/>
    </g>
    <g id="shape0" transform="matrix(1.0, 0.0, 0.0, 1.0, 21.75, -6.0)">
      <path d="M-17.85 49.1 L-18.1 50.0 -18.55 49.75 -17.85 49.1" fill="#9cb7d2" fill-rule="evenodd" stroke="none"/>
      <path d="M-18.1 50.0 L-18.55 51.6 -18.55 49.75 -18.1 50.0" fill="#819cb7" fill-rule="evenodd" stroke="none"/>
      <path d="M-16.95 48.2 L-17.55 47.9 -17.85 49.1 -18.55 49.75 -18.55 51.6 -18.55 56.15 24.85 78.0 65.05 35.45 65.2 28.35 64.6 29.0 23.0 9.35 -16.95 48.2 M67.25 38.15 L25.7 81.0 -17.7 59.65 -18.05 58.65 -21.75 53.75 -20.9 48.4 23.15 6.0 67.25 26.85 67.25 38.15" fill="#3f5a75" fill-opacity="0.92156863" fill-rule="evenodd" stroke="none"/>
      <path d="M-18.55 51.6 L23.65 72.3 23.95 71.85 24.85 78.0 -18.55 56.15 -18.55 51.6" fill="#3f5a75" fill-opacity="0.56078434" fill-rule="evenodd" stroke="none"/>
      <path d="M23.95 71.85 L24.85 70.45 24.7 70.4 64.6 29.0 65.2 28.35 65.05 35.45 24.85 78.0 23.95 71.85" fill="#3f5a75" fill-opacity="0.7529412" fill-rule="evenodd" stroke="none"/>
      <path d="M54.35 24.75 L56.65 25.85 17.05 66.3 24.7 70.4 24.85 70.45 23.95 71.85 23.65 72.3 -18.55 51.6 -18.1 50.0 -17.85 49.1 -17.55 47.9 -16.95 48.2 -10.05 51.9 29.7 13.25 36.1 16.1 35.6 16.65 -2.75 55.8 5.15 60.0 9.6 62.35 50.4 22.8 54.35 24.75" fill="#3f5a75" fill-opacity="0.08235294" fill-rule="evenodd" stroke="none"/>
      <path d="M5.15 60.0 L-2.75 55.8 35.6 16.65 44.0 20.3 5.15 60.0" fill="#3f5a75" fill-opacity="0.33333334" fill-rule="evenodd" stroke="none"/>
      <path d="M54.35 24.75 L50.4 22.8 9.6 62.35 5.15 60.0 44.0 20.3 35.6 16.65 36.1 16.1 29.7 13.25 -10.05 51.9 -16.95 48.2 23.0 9.35 64.6 29.0 54.6 24.5 54.35 24.75" fill="#3f5a75" fill-opacity="0.21176471" fill-rule="evenodd" stroke="none"/>
      <path d="M24.7 70.4 L17.05 66.3 56.65 25.85 54.35 24.75 54.6 24.5 64.6 29.0 24.7 70.4" fill="#3f5a75" fill-opacity="0.52156866" fill-rule="evenodd" stroke="none"/>
    </g>
  </defs>
</svg>
